X: 117
T: Cantantibus organis – Andante con moto
C: Franciszek Walczyński
%%abc-version 2.0
%%abcx-abcm2ps-target-version 5.9.1 (29 Sep 2008)
%%abc-creator hum2abc beta
%%abcx-conversion-date 2021/10/04 07:38:39
%%abc-edited-by Kamil Watkowski
%%abcx-initial-encoding-date 2021-08-09
%%humdrum-veritas 544559324
%%humdrum-veritas-data 1686058308
%%linebreak <none>
%%barnumbers 0
L: 1/8
M: C
N: Derived from pl-kozmzk--mzk-m-346--019_walczynski-franciszek--cantantibus-organis-andante-con-moto.krn
%%staves {1 2}
V: 1 clef=treble
V: 2 clef=bass
K: D
[V:1] z8 & z8 | 
[V:2] z8 & .B,,.C,.D,.^E, .F,.^A,.B,.C | 
[V:1] z4!accent![C4F4^A4] | 
[V:2] !accent!D2!accent!G,2!accent!F,4 | 
[V:1] z8 & z8 | 
[V:2] z8 & .F,,.G,,.^A,,.B,, .C,.D,.E,.G, | 
[V:1] z4[F4B4] & x4B,4 | 
[V:2] !accent!F,2!accent!C,2!accent!D,4 | 
[V:1] B=cBF AGFE & F2>^D2 FEDE | 
[V:2] B,2>=C2B,2A,G, & ^D,4E,4 | 
[V:1] =D2C2B,4 & B,2>^A,2B,4 | 
[V:2] F,2>E,2D,4 & F,2F,,2G,,4 | 
[V:1] B,CD^E F^ABd & z8 | 
[V:2] B,,C,D,^E, F,^A,B,D & z8 | 
[V:1] f2g2^A4 & z4F4 | 
[V:2] F2G2C4 & z4F,2E,2 | 
[V:1] =A4G2E2 & F4E4 | 
[V:2] =C4B,2G,2 & ^D,4E,4 | 
[V:1] ^EF^AB cdBG & z8 | 
[V:2] ^E,F,^A,B, CDB,G, & z8 | 
[V:1] F6E2 & z4C4 | 
[V:2] F,4^A,2G,2 & z4F,,4 | 
[V:1] [B,8D8] | 
[V:2] F,8 & B,,8 | 
[V:1] E4D2C2 & B,6^A,2 | 
[V:2] G,4F,2E,2 & B,,8- | 
[V:1] !fermata!B,8 & B,8 |]  
[V:2] !fermata![B,,8D,8] |]  


